X: 1452
T: Frank Forde's 2nd Set Tune
B: australian traditional tunes wiki
M:2/4
L:1/8
R: Set Tune
Q: 1/4=100
K:G
V:1 
EF|"G"GB "D7"D/E/F|"G"GB GB/c/|dB/d/ ed|"D7"A2AF/G/|AF E/G/D|AF AB/c/|d^c/d/ "C"e/f/e/d/|"G"B2BB/A/|
"G"GB "D7"D/E/F|"G"GB GB/c/|dB/d/ ed|"C"c2cB/c/|"D7"AF ED|AF AG/A/|"G"Bd "D7"c/B/A/F/|"G"G2GG/A/||
"G"Bd "D7"c/B/A/F/|"G"G2GD/E/|"D7"FA G/F/E|D2DA/B/| "C"cc c/B/c/d/|"G"BD GF/G/|"A7"Ae ^ce|"D7"d/e/d/c/ B/A/G/A/|
"G"Bd "D7"c/B/A/F/|"G"G2GD/E/|"D7"FA G/F/E|D2DA/B/|"C"ce cB/A/|"G"Bd GA/B/|"D7"cA F/D/E/F/|"G"G2G2||
% abcbook-tune_id 6342d53aef80081fbdf2a088


% abcbook-boost 0
% abcbook-tablature 
% abcbook-transpose 
% abcbook-lastupdated 1665324365764
% abcbook-soundfonts 
% abcbook-repeats 1
% NFF Book 2010

